public/images/xbox.svg

<svg fill="none" height="90" viewBox="0 0 90 90" width="90" xmlns="http://www.w3.org/2000/svg"><path d="m20.3175 73.2263c6.8258 5.9903 15.601 9.2873 24.6825 9.2737 9.0848.0126 17.8631-3.2842 24.6938-9.2737 5.865-5.9738-13.4888-27.2138-24.6938-35.6776-11.1937 8.4638-30.5625 29.7038-24.6825 35.6776zm34.875-45.0188c7.815 9.255 23.3888 32.2313 18.99 40.35 5.3941-6.6608 8.3311-14.9753 8.3175-23.5462.0069-4.9645-.9762-9.8805-2.8918-14.4605s-4.7252-8.732-8.2644-12.2133c0 0-.0825-.0675-.255-.1312-.2832-.0985-.5815-.1468-.8813-.1425-1.8487 0-6.2025 1.3575-15.015 10.1437zm-36.2737-9.9975c-.18.0638-.255.1275-.27.1312-3.5366 3.4822-6.344 7.634-8.2582 12.2131-1.9142 4.5792-2.89685 9.4938-2.89057 14.457 0 8.9212 3.11997 17.1037 8.31747 23.5425-4.38-8.1413 11.1825-31.0988 18.9975-40.3425-8.8125-8.7938-13.1737-10.1438-15.015-10.1438-.2993-.0097-.5975.04-.8775.1462v-.0074zm26.0812.3863s-9.2025-5.385-16.3875-5.64c-2.8237-.1013-4.545.9225-4.755 1.0575 6.7013-4.4963 13.8263-6.5138 21.0938-6.5138h.0487c7.2938 0 14.3925 2.0175 21.1425 6.5138-.21-.1425-1.92-1.1625-4.7475-1.0575-7.1887.255-16.395 5.625-16.395 5.625z" fill="#000"/></svg>

<svg width="90" height="90" viewBox="0 0 90 90" fill="none" xmlns="http://www.w3.org/2000/svg">
<path d="M20.3175 73.2263C27.1433 79.2166 35.9185 82.5136 45 82.5C54.0848 82.5126 62.8631 79.2158 69.6938 73.2263C75.5588 67.2525 56.205 46.0125 45 37.5487C33.8063 46.0125 14.4375 67.2525 20.3175 73.2263ZM55.1925 28.2075C63.0075 37.4625 78.5813 60.4388 74.1825 68.5575C79.5766 61.8967 82.5136 53.5822 82.5 45.0113C82.5069 40.0468 81.5238 35.1308 79.6082 30.5508C77.6926 25.9708 74.883 21.8188 71.3438 18.3375C71.3438 18.3375 71.2613 18.27 71.0888 18.2063C70.8056 18.1078 70.5073 18.0595 70.2075 18.0638C68.3588 18.0638 64.005 19.4213 55.1925 28.2075ZM18.9188 18.21C18.7388 18.2738 18.6638 18.3375 18.6488 18.3412C15.1122 21.8234 12.3048 25.9752 10.3906 30.5543C8.4764 35.1335 7.49375 40.0481 7.50003 45.0113C7.50003 53.9325 10.62 62.115 15.8175 68.5538C11.4375 60.4125 27 37.455 34.815 28.2113C26.0025 19.4175 21.6413 18.0675 19.8 18.0675C19.5007 18.0578 19.2025 18.1075 18.9225 18.2137V18.2063L18.9188 18.21ZM45 18.5963C45 18.5963 35.7975 13.2113 28.6125 12.9563C25.7888 12.855 24.0675 13.8788 23.8575 14.0138C30.5588 9.5175 37.6838 7.5 44.9513 7.5H45C52.2938 7.5 59.3925 9.5175 66.1425 14.0138C65.9325 13.8713 64.2225 12.8513 61.395 12.9563C54.2063 13.2113 45 18.5813 45 18.5813V18.5963Z" fill="black"/>
</svg>
